Origami/16x16/apps/wayland.svg

<svg width="16" height="16" version="1.1" viewBox="0 0 16 16" xmlns="http://www.w3.org/2000/svg">
 <path d="m8 0c-4.418278 0-8 3.581722-8 8s3.581722 8 8 8 8-3.581722 8-8-3.581722-8-8-8z" style="fill:#f3b616"/>
 <path d="m13.55924 0c0.282438 1.644e-5 0.44028 0.223633 0.47352 0.67085792l-0.356747 2.1061741h0.08723l0.186914-0.1560144h0.04985v0.046804c-0.257549 0.1976312-0.50677 0.7384728-0.747671 1.6225336-0.09139 0.7592748-0.24508 1.4613316-0.461061 2.1061784-0.191077 0.665662-0.286614 1.2793104-0.286602 1.8409536l-0.361372 1.1076908c-8e-6 0.093612 0.237375 0.1872212 0.511527 0.2808216-0.04985 0.2184244-0.12462 0.3276344-0.224298 0.3276304v0.062406h0.08723v0.0468c-1.2e-5 0.114415-0.141235 0.17162-0.423677 0.171616l0.04984 0.06241v0.218416h-0.08723c0.05814 0.218425 0.182753 0.327631 0.373834 0.327631v0.109206h-0.373834v0.06241c0.124601 4e-6 0.186909 0.09361 0.186917 0.280826l-0.523361 0.218416 0.04984 0.06241v0.0468c-8e-6 0.07281-0.06232 0.10921-0.186917 0.10921v0.0624c0.157829 4e-6 0.236752 0.0364 0.23676 0.10921-0.224306 0.09361-0.619529 0.156317-0.985046 0.988386-0.373836 0.738457-0.697824 1.107687-0.9719564 1.107687h-0.099689c-0.2076914-0.166415-0.3779942-0.717662-0.5109042-1.65374-0.5316784-1.424916-0.7975136-1.862055-0.797506-2.111678-7.6e-6 -0.6448476-0.1703104-1.3313068-0.510904-2.05937-0.091388-0.3224216-0.153692-0.6862328-0.1869168-1.175082h-0.2242976c-0.5649072 1.0712948-0.8598184 1.80434-0.8847376 2.4075836-0.1578412 0.3536328-0.2824536 0.7800684-0.37383 1.2793064 0.3405976 0.114414 0.5109 0.22362 0.510904 0.327626v0.06241c-0.2658432-0.041604-0.452756-0.119612-0.5607504-0.234022-0.1163036 0.280826-0.269992 1.06089-0.4610576 2.340192-0.1495356 0.59285-0.3364524 0.816904-0.5607464 0.816904-0.631364-0.26002-1.158882-0.614086-1.5825544-1.206936-0.0664608 4e-6 -0.1744592-0.296424-0.3239872-0.889274-0.091384 4e-6 -0.1536884-0.296424-0.1869168-0.889274-0.315682-0.842466-0.5316708-1.8045464-0.6479744-2.8862384v-1.6225376h-0.049846l-0.224298 0.062406v-0.062406c0-0.072794 0.074766-0.109198 0.224298-0.109206l-0.049843-0.9360784v-0.7332636l-0.3613722-2.7399109v-0.99848386c0.157841-0.62403722 0.4319852-0.93606194 0.8224292-0.93607838l0.14954 0.15601444-0.149532-0.0468043c0.6064368 0.83208104 0.963656 1.9338566 1.0716504 2.505893h0.4236764v0.10921h-0.3239868v0.1248116c0.1246084 0.4784484 0.2159884 0.7176704 0.2741444 0.7176584h0.099689l0.2242976-0.062406 0.049843 0.062406 0.049846-0.062406 0.049843 0.062406v0.046804c-0.16615 0.12482-0.2782968 0.2964356-0.3364488 0.5148436h-0.037376v0.109206h0.087228c0.1162996 1.7369564 0.3322924 2.7521688 0.6479744 3.6466392l0.1869168 0.1560104h0.099685c0.1246088 8.4e-6 0.3862916-0.707607 0.7850484-1.9245154 0.2575264-0.5512344 0.4444392-0.9548692 0.5607468-1.3709116l-0.0498428-0.171616c0.2575224-0.4056252 0.523358-0.6084396 0.797506-0.608452h0.087228c0.1744516 1.24e-5 0.29906 0.1144188 0.373834 0.3432316 0.2325988 0.343236 0.4195156 0.7780736 0.5607464 1.4645204l0.6978204 1.4218904c0.091372 0.1144188 0.1370624 0.2444268 0.1370704 0.390036 0.2575224 0.6136528 0.4901252 1.164898 0.6978208 1.3625124h0.149532c0.517428-1.2634264 0.724151-2.4443928 1.109031-3.0400034v-0.062406l-0.237072-0.1092104-0.186917 0.062406h-0.23676v-0.1248116l0.473519-0.046804h0.374147c0.357208-1.3416992 0.685348-2.3817872 0.984423-3.1202596 0.099678-1.5185117 0.236752-2.2777737 0.411215-2.277786l0.680738-0.28082596" style="fill:#ffffff"/>
</svg>

<svg xmlns="http://www.w3.org/2000/svg" width="16" height="16" version="1.1" viewBox="0 0 16 16">
 <path style="fill:#f3b616" d="M 8,0 C 3.581722,0 0,3.581722 0,8 c 0,4.418278 3.581722,8 8,8 4.418278,0 8,-3.581722 8,-8 C 16,3.581722 12.418278,0 8,0 Z"/>
 <path style="fill:#ffffff" d="m 13.55924,0 c 0.282438,1.644e-5 0.44028,0.223633 0.47352,0.67085792 l -0.356747,2.10617408 0.08723,0 0.186914,-0.1560144 0.04985,0 0,0.046804 c -0.257549,0.1976312 -0.50677,0.7384728 -0.747671,1.6225336 -0.09139,0.7592748 -0.24508,1.4613316 -0.461061,2.1061784 -0.191077,0.665662 -0.286614,1.2793104 -0.286602,1.8409536 L 12.143301,9.345178 c -8e-6,0.093612 0.237375,0.1872212 0.511527,0.2808216 C 12.604978,9.844424 12.530208,9.953634 12.43053,9.95363 l 0,0.062406 0.08723,0 0,0.0468 c -1.2e-5,0.114415 -0.141235,0.17162 -0.423677,0.171616 l 0.04984,0.06241 0,0.218416 -0.08723,0 c 0.05814,0.218425 0.182753,0.327631 0.373834,0.327631 l 0,0.109206 -0.373834,0 0,0.06241 c 0.124601,4e-6 0.186909,0.09361 0.186917,0.280826 l -0.523361,0.218416 0.04984,0.06241 0,0.0468 c -8e-6,0.07281 -0.06232,0.10921 -0.186917,0.10921 l 0,0.0624 c 0.157829,4e-6 0.236752,0.0364 0.23676,0.10921 -0.224306,0.09361 -0.619529,0.156317 -0.985046,0.988386 -0.373836,0.738457 -0.697824,1.107687 -0.9719564,1.107687 l -0.099689,0 C 9.5555492,13.833455 9.3852464,13.282208 9.2523364,12.34613 8.720658,10.921214 8.4548228,10.484075 8.4548304,10.234452 8.4548228,9.5896044 8.28452,8.9031452 7.9439264,8.175082 7.8525384,7.8526604 7.7902344,7.4888492 7.7570096,7 L 7.532712,7 C 6.9678048,8.0712948 6.6728936,8.80434 6.6479744,9.4075836 6.4901332,9.7612164 6.3655208,10.187652 6.2741444,10.68689 c 0.3405976,0.114414 0.5109,0.22362 0.510904,0.327626 l 0,0.06241 C 6.5192052,11.035322 6.3322924,10.957314 6.224298,10.842904 6.1079944,11.12373 5.954306,11.903794 5.7632404,13.183096 5.6137048,13.775946 5.426788,14 5.202494,14 4.57113,13.73998 4.043612,13.385914 3.6199396,12.793064 3.5534788,12.793068 3.4454804,12.49664 3.2959524,11.90379 3.2045684,11.903794 3.142264,11.607366 3.1090356,11.014516 2.7933536,10.17205 2.5773648,9.2099696 2.4610612,8.1282776 l 0,-1.6225376 -0.049846,0 -0.224298,0.062406 0,-0.062406 c 0,-0.072794 0.074766,-0.109198 0.224298,-0.109206 l -0.049843,-0.9360784 0,-0.7332636 L 2,1.9872811 2,0.98879724 C 2.157841,0.36476002 2.4319852,0.0527353 2.8224292,0.05271886 L 2.9719692,0.2087333 2.8224372,0.161929 c 0.6064368,0.83208104 0.963656,1.9338566 1.0716504,2.505893 l 0.4236764,0 0,0.10921 -0.3239868,0 0,0.1248116 C 4.1183856,3.380292 4.2097656,3.619514 4.2679216,3.619502 l 0.099689,0 0.2242976,-0.062406 0.049843,0.062406 0.049846,-0.062406 0.049843,0.062406 0,0.046804 c -0.16615,0.12482 -0.2782968,0.2964356 -0.3364488,0.5148436 l -0.037376,0 0,0.109206 0.087228,0 C 4.571143,6.027312 4.7871358,7.0425244 5.1028178,7.9369948 l 0.1869168,0.1560104 0.099685,0 C 5.5140284,8.0930136 5.7757112,7.3853982 6.174468,6.1684898 6.4319944,5.6172554 6.6189072,5.2136206 6.7352148,4.7975782 L 6.685372,4.6259622 C 6.9428944,4.220337 7.20873,4.0175226 7.482878,4.0175102 l 0.087228,0 c 0.1744516,1.24e-5 0.29906,0.1144188 0.373834,0.3432316 0.2325988,0.343236 0.4195156,0.7780736 0.5607464,1.4645204 l 0.6978204,1.4218904 c 0.091372,0.1144188 0.1370624,0.2444268 0.1370704,0.390036 0.2575224,0.6136528 0.4901252,1.164898 0.6978208,1.3625124 l 0.149532,0 c 0.517428,-1.2634264 0.724151,-2.4443928 1.109031,-3.0400034 l 0,-0.062406 -0.237072,-0.1092104 -0.186917,0.062406 -0.23676,0 0,-0.1248116 0.473519,-0.046804 0.374147,0 C 11.840086,4.3371724 12.168226,3.2970844 12.467301,2.558612 12.566979,1.0401003 12.704053,0.28083828 12.878516,0.28082596 L 13.559254,0"/>
</svg>
